X:1
T:RVW2/1/132 Myrtle Tree
T:RVW2/1/132 Myrtle Tree
T:"Weaver came over the sea" Mrs. Powell, Herefordshire, July 1909 [1 of 13] *RVW notates this as C as shown, but adds "B?".
T:Transcribed by Simon Furey and Lewis Jones
C:Transcribed by Simon Furey and Lewis Jones
L:1/8
Q:1/4=110
M:3/4
K:F
V:1 treble 
V:1
"^(a)""^(Editorial suggestion)" D2 F2 D2 | FA !fermata!c2 dc | A2 GF D2 | (C2 E2) G2 | D2 F2 D2 | %5
 FA c2 d>c | AFGF D2 |"^(b)" D4 (3ABc | d2 c2 A>G | F>A c2 d>c |"^(c)" A2 GF D2 | C2 E2 GF | %12
 D2 GF D2 | FA c2 dc | AF GF D2 | D6 ||"^(a) var." D2 GF D2 | FA !fermata!c2 dc | A2 GF D2 | %19
 (C2 E2) G2 | D2 F2 D2 | FA c2 d>c | AFGF D2 |"^(b) var." D4 (3A=Bc | d2 c2 A>G | F>A c2 d>c | %26
"^(c) var." A2 GF D"^?*"C | C2 E2 GF | D2 GF D2 | FA c2 dc | AF GF D2 | D6 |] %32

